browser/themes/shared/icons/window-firefox.svg

<!-- This Source Code Form is subject to the terms of the Mozilla Public
   - License, v. 2.0. If a copy of the MPL was not distributed with this
   - file, You can obtain one at http://mozilla.org/MPL/2.0/. -->
<svg xmlns="http://www.w3.org/2000/svg" width="16" height="14" viewBox="0 0 16 14" fill="context-fill" fill-opacity="context-fill-opacity">
  <path d="M13.2695 6.00391C13.3015 6.01191 13.3297 6.03348 13.3457 6.06348C13.4177 6.19758 13.5386 6.48523 13.7734 6.79004C13.8909 6.94245 14.4729 7.57252 14.7188 7.85938C14.9288 8.10544 15.3051 8.7332 15.3281 8.86719C15.2341 8.33119 15.0928 8.04608 15.0498 7.95508C15.0378 7.93016 15.023 7.89712 15.0596 7.86621C15.0866 7.84321 15.1294 7.858 15.1484 7.875C15.8712 8.53199 16.0421 9.44928 15.9941 10.4512C15.944 11.4573 14.9328 14 12.0859 14C9.38105 14 8.17497 11.7901 8.08691 10.6211C7.98291 9.24109 8.48629 7.92013 9.44629 7.32812C9.48326 7.30522 9.52844 7.30518 9.56738 7.32715C9.60605 7.34913 9.62878 7.38989 9.62793 7.43262C9.62293 7.81462 9.66416 8.09305 9.74316 8.20605C9.77218 8.18203 9.82509 8.12903 9.87305 8.08008C10.037 7.91608 10.2844 7.66769 10.5244 7.55469C10.5643 7.53595 10.6087 7.5406 10.6436 7.56445C10.6775 7.58744 10.6973 7.62599 10.6953 7.66797C10.6713 8.08297 10.6854 8.38503 10.7334 8.45703C10.8896 8.69303 11.4328 9.05452 11.7607 9.23047C11.9155 9.31336 12.0179 9.32183 12.0391 9.34277C12.058 9.36272 12.0589 9.39279 12.041 9.43164C11.99 9.54164 11.7818 9.80469 11.6328 9.80469H11.5254C11.2104 9.81707 10.3651 9.92996 10.2871 10.4629C10.2541 10.6879 10.3784 11.0165 10.6074 11.2715C10.9874 11.6932 11.5434 11.9262 12.1152 11.9062C12.9121 11.8742 13.5134 11.337 13.6514 10.623C13.7913 9.9022 13.3563 9.29909 13.1562 9.12695C13.1303 9.10396 13.0962 9.0671 13.1172 8.99316C13.1462 8.89216 13.29 8.91643 13.376 8.94043C13.4731 8.96746 13.7401 9.05995 13.7861 9.12793C13.1281 8.13793 12.2086 8.15004 11.9756 8.16504C11.9476 8.16691 11.9116 8.15664 11.8877 8.13574C11.8659 8.11676 11.8526 8.08943 11.8506 8.05957C11.8298 7.74551 12.0507 7.19356 12.3535 6.80176C12.6533 6.41403 13.0276 6.1286 13.1738 6.02441C13.2017 6.00451 13.2367 5.99707 13.2695 6.00391Z" fill="black"/>
  <path fill-rule="evenodd" clip-rule="evenodd" d="M12 0C13.103 0 14 0.897 14.001 2V4.98535C13.866 4.89535 13.7176 4.82316 13.5566 4.78516L13.416 4.75195L13.251 4.74902H13.2451C13.1123 4.74902 12.9823 4.77168 12.8564 4.80859C12.7325 4.84757 12.6119 4.90462 12.501 4.97656C12.487 4.98556 12.472 4.98905 12.459 4.99805L12.4561 5H1.5V9C1.5 9.275 1.725 9.5 2 9.5H6.88281C6.82982 9.89394 6.80984 10.2999 6.84082 10.7148C6.84782 10.8068 6.86195 10.903 6.87695 11H2C0.897 11 0 10.103 0 9V2C0 0.897 0.897 0 2 0H12ZM2 1.5C1.725 1.5 1.5 1.725 1.5 2V3.5H12.5V2C12.5 1.725 12.275 1.5 12 1.5H2Z" fill="black"/>
</svg>

<!-- This Source Code Form is subject to the terms of the Mozilla Public
   - License, v. 2.0. If a copy of the MPL was not distributed with this
   - file, You can obtain one at http://mozilla.org/MPL/2.0/. -->
<svg xmlns="http://www.w3.org/2000/svg" width="16" height="14" fill="context-fill" fill-opacity="context-fill-opacity" viewBox="0 0 16 14"><path d="M13.27 6.004a.12.12 0 0 1 .076.06c.072.134.193.421.427.726.118.152.7.783.946 1.07.21.245.586.873.61 1.007-.095-.536-.236-.82-.28-.912-.011-.025-.026-.058.01-.089.028-.023.07-.008.09.009.722.657.893 1.574.845 2.576-.05 1.006-1.061 3.549-3.908 3.549-2.705 0-3.911-2.21-4-3.379-.103-1.38.4-2.7 1.36-3.293a.12.12 0 0 1 .121 0 .12.12 0 0 1 .06.105c-.004.382.037.66.116.773a2 2 0 0 0 .13-.126c.164-.164.411-.412.651-.525a.12.12 0 0 1 .12.01.12.12 0 0 1 .051.103c-.024.415-.01.717.038.789.157.236.7.598 1.028.773.155.083.257.092.278.113q.029.03.002.089c-.051.11-.26.373-.408.373h-.108c-.315.012-1.16.125-1.238.658-.033.225.091.554.32.809.38.421.936.654 1.508.634.797-.032 1.398-.569 1.536-1.283.14-.72-.295-1.324-.495-1.496a.12.12 0 0 1-.039-.134c.03-.1.173-.077.259-.053.097.027.364.12.41.188-.658-.99-1.577-.978-1.81-.963a.13.13 0 0 1-.088-.03.1.1 0 0 1-.037-.075c-.021-.314.2-.866.502-1.258.3-.388.675-.673.82-.778a.12.12 0 0 1 .097-.02"/><path d="M12 0c1.103 0 2 .897 2.001 2v2.985a1.4 1.4 0 0 0-.444-.2l-.141-.033-.165-.003h-.006a1.4 1.4 0 0 0-.744.228c-.014.009-.029.012-.042.021L12.456 5H1.5v4c0 .275.225.5.5.5h4.883c-.053.394-.073.8-.042 1.215q.012.139.036.285H2c-1.103 0-2-.897-2-2V2C0 .897.897 0 2 0zM2 1.5c-.275 0-.5.225-.5.5v1.5h11V2c0-.275-.225-.5-.5-.5z"/></svg>
